icons/showers-night.svg

<svg width="54" height="56" viewBox="0 0 54 56" fill="none" xmlns="http://www.w3.org/2000/svg">
<path d="M0 29.0036C0 32.3405 1.1358 35.2258 3.4321 37.6093C5.72839 39.9928 8.51852 41.2975 11.8272 41.448C12.0988 41.448 12.2469 41.2975 12.2469 41.0215V37.5842C12.2469 37.2832 12.0988 37.1326 11.8272 37.1326C9.67901 36.957 7.87654 36.1039 6.41975 34.5233C4.96296 32.9677 4.22222 31.1111 4.22222 28.9785C4.22222 26.8961 4.91358 25.1147 6.2963 23.5591C7.67901 22.0036 9.40741 21.1254 11.4815 20.8746L12.7901 20.6989C13.1111 20.6989 13.2839 20.5484 13.2839 20.2724L13.4568 18.9677C13.7284 16.2581 14.8395 13.9749 16.8395 12.1685C18.8395 10.3369 21.1852 9.43369 23.8765 9.43369C26.5679 9.43369 28.9136 10.3369 30.9136 12.1685C32.9136 13.9749 34.0741 16.2581 34.3457 18.9928L34.5432 20.448C34.5432 20.7491 34.6914 20.8996 34.9877 20.8996H38.963C41.1852 20.8996 43.0864 21.7025 44.6914 23.2832C46.2716 24.8638 47.0864 26.7706 47.0864 29.0036C47.0864 31.1362 46.3457 32.9928 44.8889 34.5484C43.4321 36.1039 41.6049 36.9821 39.4815 37.1577C39.1605 37.1577 38.9877 37.3082 38.9877 37.6093V41.0466C38.9877 41.3226 39.1605 41.4731 39.4815 41.4731C42.7654 41.3728 45.5556 40.0932 47.8272 37.6846C50.0988 35.276 51.2346 32.3907 51.2346 29.0287C51.2346 26.8459 50.6914 24.8136 49.6296 22.9319C51.6296 21.1004 52.9383 18.9176 53.5309 16.3584V16.0323L54 14.0502L52.1235 13.5233C50.1235 12.9211 48.5679 11.767 47.4568 10.1362C46.3457 8.48029 45.8025 6.77419 45.8025 5.04301C45.8025 4.39068 45.8765 3.73835 46 3.08602L46.4938 1.07885L44.3951 0.451614L44.0247 0.351254C42.8642 0.125448 41.8519 0 40.9383 0C40 0 39.0617 0.100359 38.1235 0.326165C37.1605 0.551972 36.1728 0.878136 35.1605 1.35484C34.1235 1.83154 33.1358 2.48387 32.1975 3.36201C31.2593 4.24014 30.4198 5.26882 29.7284 6.44803C27.9012 5.62007 25.9506 5.21864 23.9012 5.21864C20.4198 5.21864 17.3333 6.32258 14.642 8.50538C11.9506 10.6882 10.2716 13.4982 9.53086 16.9355C6.76543 17.5878 4.46913 19.0179 2.69136 21.2509C0.888888 23.534 0 26.1183 0 29.0036ZM13.3333 45.9892C13.3333 46.3656 13.4568 46.7419 13.7037 47.1183C13.9506 47.4946 14.321 47.7706 14.8148 47.9462C15.358 48.1219 15.8765 48.0968 16.3951 47.8208C16.9136 47.5448 17.2346 47.1183 17.4074 46.5412L18.0988 43.8817C18.2716 43.3548 18.2222 42.853 17.9259 42.3262C17.6296 41.7993 17.2099 41.4731 16.6667 41.2975C16.0988 41.147 15.5556 41.2222 15.0617 41.4982C14.5679 41.7742 14.2222 42.2509 14.0247 42.828L13.4568 45.3118C13.3827 45.7133 13.3333 45.9391 13.3333 45.9892ZM16.5432 34.1219C16.5432 34.3979 16.6173 34.6989 16.7901 35.0251C16.963 35.4516 17.4074 35.7778 18.0988 35.9785C18.6914 36.129 19.2346 36.0789 19.7284 35.828C20.1975 35.5771 20.5432 35.1255 20.716 34.5233L21.4074 31.9391C21.5802 31.362 21.5309 30.81 21.2346 30.3333C20.9383 29.8315 20.5185 29.5054 19.9753 29.3548C19.3827 29.2043 18.8148 29.2545 18.321 29.5305C17.8272 29.8065 17.5062 30.233 17.3333 30.8351L16.6667 33.3692C16.5926 33.6953 16.5432 33.9462 16.5432 34.1219ZM19.6296 53.8172C19.6296 54.2437 19.7531 54.6452 20 55.0466C20.2469 55.448 20.6173 55.724 21.1111 55.8746C21.3827 55.9498 21.5556 56 21.679 56C21.9012 56 22.1975 55.9247 22.6173 55.7491C23.1111 55.5484 23.4568 55.0717 23.679 54.3692L24.4198 51.7348C24.5926 51.2079 24.5432 50.681 24.2469 50.1541C23.9506 49.6272 23.5309 49.3011 22.9877 49.1255C22.3951 48.9749 21.8272 49.0251 21.3333 49.3262C20.8395 49.6272 20.4938 50.0538 20.321 50.6559L19.7037 53.19C19.6543 53.3907 19.6296 53.6165 19.6296 53.8172ZM22.9136 41.8495C22.9136 42.2258 23.037 42.6022 23.284 42.9785C23.5309 43.3548 23.9012 43.6308 24.4198 43.8065C24.963 43.9821 25.5062 43.9319 26 43.6559C26.4938 43.3799 26.8148 42.9534 26.9877 42.3513L27.6543 39.7419C27.8272 39.2151 27.7778 38.6882 27.5062 38.1864C27.2346 37.6846 26.8395 37.3333 26.2963 37.1577C25.7037 37.0072 25.1358 37.0824 24.6173 37.3584C24.0988 37.6344 23.7531 38.1111 23.5802 38.6882L22.9877 41.1971L22.9136 41.8495ZM29.8519 46.2652C29.8519 47.2186 30.3704 47.8208 31.4321 48.147C31.6543 48.1971 31.8519 48.2222 32.0247 48.2222C32.3951 48.2222 32.6914 48.172 32.9383 48.0466C33.4568 47.8459 33.8272 47.3692 34.0247 46.6165L34.6914 44.0573C34.8395 43.4301 34.7901 42.8781 34.4938 42.3763C34.1975 41.8746 33.7778 41.5735 33.1852 41.448C32.6173 41.2724 32.0741 41.3226 31.6049 41.6237C31.1358 41.9247 30.7901 42.3513 30.6173 42.9032L29.9506 45.5125C29.9506 45.5627 29.9259 45.6882 29.9012 45.8889C29.8519 46.0645 29.8519 46.19 29.8519 46.2652ZM33.2839 34.1971C33.2839 34.5986 33.4074 34.9749 33.6543 35.3513C33.9012 35.7276 34.2963 36.0036 34.7901 36.1541C35.1358 36.2294 35.3333 36.2796 35.358 36.2796C35.5802 36.2796 35.8765 36.2043 36.2963 36.0287C36.8148 35.828 37.1605 35.3513 37.3827 34.6487L38.0741 32.0394C38.2222 31.4875 38.1481 30.9606 37.8765 30.4588C37.6049 29.957 37.1358 29.6308 36.5679 29.4552C36.0247 29.2796 35.5062 29.3297 35.0123 29.6308C34.5185 29.9319 34.1975 30.3584 34.0247 30.9355L33.3827 33.595C33.3086 33.8208 33.2839 34.0466 33.2839 34.1971ZM33.358 8.68101C34.1481 7.27599 35.2346 6.17204 36.642 5.39427C38.0494 4.61649 39.5309 4.21505 41.1111 4.21505H41.6296C41.6049 4.44086 41.6049 4.74194 41.6049 5.16846C41.6049 7.55197 42.2469 9.81004 43.5309 11.9677C44.8148 14.1254 46.6173 15.7563 48.8889 16.8853C48.3457 17.9642 47.7037 18.8925 46.963 19.6452C44.6667 17.6129 41.9753 16.6093 38.9383 16.6093H38.1481C37.5309 13.6237 35.9506 10.9892 33.358 8.68101Z" fill="#FFFBE9"/>
</svg>

<?xml version="1.0" encoding="UTF-8"?><svg id="Layer_2" xmlns="http://www.w3.org/2000/svg" viewBox="0 0 54 56"><defs><style>.cls-1{fill:#e7f3f6;}</style></defs><g id="Layer_1-2"><path id="showers-night" class="cls-1" d="M0,29c0,3.34,1.14,6.22,3.43,8.61,2.3,2.38,5.09,3.69,8.4,3.84,.27,0,.42-.15,.42-.43v-3.44c0-.3-.15-.45-.42-.45-2.15-.18-3.95-1.03-5.41-2.61-1.46-1.56-2.2-3.41-2.2-5.54s.69-3.86,2.07-5.42c1.38-1.56,3.11-2.43,5.19-2.68l1.31-.18c.32,0,.49-.15,.49-.43l.17-1.3c.27-2.71,1.38-4.99,3.38-6.8,2-1.83,4.35-2.73,7.04-2.73s5.04,.9,7.04,2.73c2,1.81,3.16,4.09,3.43,6.82l.2,1.46c0,.3,.15,.45,.44,.45h3.98c2.22,0,4.12,.8,5.73,2.38,1.58,1.58,2.4,3.49,2.4,5.72s-.74,3.99-2.2,5.54c-1.46,1.56-3.28,2.43-5.41,2.61-.32,0-.49,.15-.49,.45v3.44c0,.28,.17,.43,.49,.43,3.28-.1,6.07-1.38,8.35-3.79,2.27-2.41,3.41-5.29,3.41-8.66,0-2.18-.54-4.22-1.6-6.1,2-1.83,3.31-4.01,3.9-6.57v-.33l.47-1.98-1.88-.53c-2-.6-3.56-1.76-4.67-3.39-1.11-1.66-1.65-3.36-1.65-5.09,0-.65,.07-1.3,.2-1.96l.49-2.01-2.1-.63-.37-.1c-1.16-.23-2.17-.35-3.09-.35s-1.88,.1-2.81,.33c-.96,.23-1.95,.55-2.96,1.03-1.04,.48-2.02,1.13-2.96,2.01-.94,.88-1.78,1.91-2.47,3.09-1.83-.83-3.78-1.23-5.83-1.23-3.48,0-6.57,1.1-9.26,3.29-2.69,2.18-4.37,4.99-5.11,8.43-2.77,.65-5.06,2.08-6.84,4.32-1.8,2.28-2.69,4.87-2.69,7.75Zm13.33,16.99c0,.38,.12,.75,.37,1.13,.25,.38,.62,.65,1.11,.83,.54,.18,1.06,.15,1.58-.13,.52-.28,.84-.7,1.01-1.28l.69-2.66c.17-.53,.12-1.03-.17-1.56-.3-.53-.72-.85-1.26-1.03-.57-.15-1.11-.08-1.61,.2-.49,.28-.84,.75-1.04,1.33l-.57,2.48c-.07,.4-.12,.63-.12,.68Zm3.21-11.87c0,.28,.07,.58,.25,.9,.17,.43,.62,.75,1.31,.95,.59,.15,1.14,.1,1.63-.15,.47-.25,.81-.7,.99-1.3l.69-2.58c.17-.58,.12-1.13-.17-1.61-.3-.5-.72-.83-1.26-.98-.59-.15-1.16-.1-1.65,.18-.49,.28-.81,.7-.99,1.3l-.67,2.53c-.07,.33-.12,.58-.12,.75Zm3.09,19.7c0,.43,.12,.83,.37,1.23s.62,.68,1.11,.83c.27,.08,.44,.13,.57,.13,.22,0,.52-.08,.94-.25,.49-.2,.84-.68,1.06-1.38l.74-2.63c.17-.53,.12-1.05-.17-1.58-.3-.53-.72-.85-1.26-1.03-.59-.15-1.16-.1-1.65,.2-.49,.3-.84,.73-1.01,1.33l-.62,2.53c-.05,.2-.07,.43-.07,.63Zm3.28-11.97c0,.38,.12,.75,.37,1.13,.25,.38,.62,.65,1.14,.83,.54,.18,1.09,.13,1.58-.15,.49-.28,.81-.7,.99-1.3l.67-2.61c.17-.53,.12-1.05-.15-1.56-.27-.5-.67-.85-1.21-1.03-.59-.15-1.16-.08-1.68,.2-.52,.28-.86,.75-1.04,1.33l-.59,2.51-.07,.65Zm6.94,4.42c0,.95,.52,1.56,1.58,1.88,.22,.05,.42,.08,.59,.08,.37,0,.67-.05,.91-.18,.52-.2,.89-.68,1.09-1.43l.67-2.56c.15-.63,.1-1.18-.2-1.68-.3-.5-.72-.8-1.31-.93-.57-.18-1.11-.13-1.58,.18-.47,.3-.81,.73-.99,1.28l-.67,2.61c0,.05-.02,.18-.05,.38-.05,.18-.05,.3-.05,.38Zm3.43-12.07c0,.4,.12,.78,.37,1.15,.25,.38,.64,.65,1.14,.8,.35,.08,.54,.13,.57,.13,.22,0,.52-.08,.94-.25,.52-.2,.86-.68,1.09-1.38l.69-2.61c.15-.55,.07-1.08-.2-1.58-.27-.5-.74-.83-1.31-1-.54-.18-1.06-.13-1.56,.18-.49,.3-.81,.73-.99,1.3l-.64,2.66c-.07,.23-.1,.45-.1,.6Zm.07-25.52c.79-1.41,1.88-2.51,3.28-3.29,1.41-.78,2.89-1.18,4.47-1.18h.52c-.02,.23-.02,.53-.02,.95,0,2.38,.64,4.64,1.93,6.8,1.28,2.16,3.09,3.79,5.36,4.92-.54,1.08-1.19,2.01-1.93,2.76-2.3-2.03-4.99-3.04-8.02-3.04h-.79c-.62-2.99-2.2-5.62-4.79-7.93Z"/></g></svg>
